fs/people_32_regular.svg

<svg viewBox="0 0 32 32" fill="none" xmlns="http://www.w3.org/2000/svg" height="1em" width="1em">
  <path d="M7 10.5C7 8.567 8.567 7 10.5 7C12.433 7 14 8.567 14 10.5C14 12.433 12.433 14 10.5 14C8.567 14 7 12.433 7 10.5ZM10.5 5C7.46243 5 5 7.46243 5 10.5C5 13.5376 7.46243 16 10.5 16C13.5376 16 16 13.5376 16 10.5C16 7.46243 13.5376 5 10.5 5ZM21 12C21 10.8954 21.8954 10 23 10C24.1046 10 25 10.8954 25 12C25 13.1046 24.1046 14 23 14C21.8954 14 21 13.1046 21 12ZM23 8C20.7909 8 19 9.79086 19 12C19 14.2091 20.7909 16 23 16C25.2091 16 27 14.2091 27 12C27 9.79086 25.2091 8 23 8ZM2 21C2 19.3431 3.34315 18 5 18H16C17.6569 18 19 19.3431 19 21V21.1875C19 21.1875 19 21.1865 19 21.1891L19 21.1908L19 21.1945L18.9999 21.2034L18.9995 21.2264C18.999 21.2442 18.9982 21.2666 18.9968 21.2934C18.994 21.347 18.9888 21.4184 18.9792 21.5049C18.96 21.6777 18.9228 21.9133 18.8507 22.1909C18.7067 22.7454 18.4203 23.4781 17.8513 24.2084C16.6809 25.7104 14.48 27 10.5 27C6.52002 27 4.3191 25.7104 3.1487 24.2084C2.57965 23.4781 2.29335 22.7454 2.1493 22.1909C2.07721 21.9133 2.04002 21.6777 2.02079 21.5049C2.01115 21.4184 2.00596 21.347 2.00318 21.2934C2.00178 21.2666 2.00099 21.2442 2.00054 21.2264L2.00011 21.2034L2.00002 21.1945L2.00001 21.1908L2 21.1891C2 21.1865 2 21.1875 2 21.1875V21ZM4 21.1782L4.00048 21.1897C4.00136 21.2066 4.0035 21.2386 4.00851 21.2837C4.01857 21.374 4.03998 21.5144 4.08507 21.6881C4.1754 22.0358 4.35785 22.5063 4.7263 22.9791C5.4309 23.8833 6.97998 25 10.5 25C14.02 25 15.5691 23.8833 16.2737 22.9791C16.6422 22.5063 16.8246 22.0358 16.9149 21.6881C16.96 21.5144 16.9814 21.374 16.9915 21.2837C16.9965 21.2386 16.9986 21.2066 16.9995 21.1897L17 21.1782V21C17 20.4477 16.5523 20 16 20H5C4.44772 20 4 20.4477 4 21V21.1782ZM19.4769 24.4916C20.4066 24.8085 21.5641 25 22.9995 25C26.2012 25 28.0201 24.0472 29.0126 22.8755C29.4959 22.3049 29.7428 21.7275 29.8682 21.2834C29.9307 21.0618 29.9634 20.8722 29.9806 20.7306C29.9892 20.6597 29.9939 20.6004 29.9965 20.5545C29.9972 20.541 29.9978 20.5287 29.9983 20.5176C29.9986 20.5097 29.9988 20.5025 29.999 20.4958L29.9994 20.4743L29.9995 20.4656L29.9995 20.4618L29.9995 20.46C29.9995 20.4573 29.9995 20.4583 29.9995 20.4583C29.9995 19.1006 28.8989 18 27.5412 18H19.3522C19.8523 18.5587 20.2148 19.2431 20.3865 20H27.5412C27.7903 20 27.993 20.1987 27.9994 20.4462C27.9988 20.4543 27.9976 20.4693 27.9951 20.4904C27.9888 20.5425 27.9746 20.6296 27.9434 20.74C27.8813 20.96 27.7532 21.268 27.4865 21.5828C26.979 22.1819 25.7979 23 22.9995 23C21.8353 23 20.9511 22.8584 20.2787 22.6499C20.1339 23.1804 19.8894 23.8237 19.4769 24.4916Z" fill="#212121"/>
</svg>

<svg viewBox="0 0 32 32" fill="none" xmlns="http://www.w3.org/2000/svg" height="1em" width="1em">
  <path d="M7 10.5a3.5 3.5 0 1 1 7 0 3.5 3.5 0 0 1-7 0ZM10.5 5a5.5 5.5 0 1 0 0 11 5.5 5.5 0 0 0 0-11ZM21 12a2 2 0 1 1 4 0 2 2 0 0 1-4 0Zm2-4a4 4 0 1 0 0 8 4 4 0 0 0 0-8ZM2 21a3 3 0 0 1 3-3h11a3 3 0 0 1 3 3v.226a2.763 2.763 0 0 1-.02.279c-.02.173-.057.408-.13.686a5.564 5.564 0 0 1-.999 2.017C16.681 25.71 14.48 27 10.5 27s-6.18-1.29-7.351-2.792a5.564 5.564 0 0 1-1-2.017 4.905 4.905 0 0 1-.146-.898 2.494 2.494 0 0 1-.002-.067v-.023L2 21.195V21Zm2 .178v.012a2.913 2.913 0 0 0 .085.498c.09.348.273.818.641 1.291C5.431 23.883 6.98 25 10.5 25s5.07-1.117 5.774-2.02a3.57 3.57 0 0 0 .64-1.292A2.919 2.919 0 0 0 17 21.19l.001-.012V21a1 1 0 0 0-1-1H5a1 1 0 0 0-1 1v.178Zm15.477 3.314c.93.316 2.087.508 3.523.508 3.201 0 5.02-.953 6.013-2.125.483-.57.73-1.148.855-1.592a3.683 3.683 0 0 0 .129-.729l.001-.036.001-.022v-.038A2.457 2.457 0 0 0 27.541 18h-8.189c.5.559.863 1.243 1.035 2h7.154c.25 0 .452.199.458.446a1.67 1.67 0 0 1-.056.294c-.062.22-.19.528-.457.843C26.98 22.182 25.799 23 23 23c-1.165 0-2.049-.142-2.721-.35a7.04 7.04 0 0 1-.802 1.842Z" fill="#212121"/>
</svg>
